dist/img/icons/burger-orange.svg

<svg width="20" height="20" viewBox="0 0 20 20" fill="none" xmlns="http://www.w3.org/2000/svg">
<path fill-rule="evenodd" clip-rule="evenodd" d="M0 0H20V2.60871H0V0ZM0 8.69587H20V11.3046H0V8.69587ZM20 17.3912H0V19.9999H20V17.3912Z" fill="#FF5500"/>
</svg>

<svg width="20" height="20" fill="none" xmlns="http://www.w3.org/2000/svg"><path fill-rule="evenodd" clip-rule="evenodd" d="M0 0h20v2.609H0V0zm0 8.696h20v2.609H0v-2.61zm20 8.695H0V20h20v-2.61z" fill="#F50"/></svg>
